icons/misc/junk.svg

<svg xmlns="http://www.w3.org/2000/svg" xmlns:xlink="http://www.w3.org/1999/xlink" width="128pt" height="121pt" viewBox="0 0 128 121" version="1.1">
<g id="surface1">
<path d="M 24.160156 108.261719 C 22.605469 106.421875 20.558594 106.636719 18.015625 108.898438 C 15.894531 111.164062 15.683594 113.144531 17.378906 114.84375 C 19.214844 116.542969 21.191406 116.328125 23.3125 114.207031 C 25.574219 111.941406 25.855469 109.960938 24.160156 108.261719 M 71.839844 52.222656 L 85.191406 38.847656 C 82.929688 32.621094 82.226562 27.453125 83.074219 23.351562 C 84.203125 18.679688 86.109375 15.070312 88.792969 12.523438 C 91.621094 9.550781 95.222656 7.570312 99.601562 6.582031 C 103.839844 5.730469 108.148438 6.226562 112.527344 8.066406 L 101.722656 18.679688 L 104.898438 28.65625 L 114.4375 31.628906 L 125.242188 20.804688 C 127.082031 24.90625 127.574219 29.082031 126.726562 33.328125 C 125.878906 37.574219 123.972656 41.183594 121.003906 44.15625 C 118.179688 46.984375 114.4375 48.964844 109.773438 50.097656 C 105.253906 50.949219 100.167969 50.238281 94.515625 47.976562 L 81.164062 61.347656 L 123.546875 103.804688 L 109.351562 118.027344 L 66.96875 75.570312 L 30.304688 111.023438 C 30.164062 113.429688 29.175781 115.621094 27.339844 117.601562 C 25.21875 119.585938 22.816406 120.644531 20.132812 120.789062 C 17.449219 120.929688 15.257812 120.152344 13.5625 118.453125 C 11.867188 116.894531 11.019531 114.703125 11.019531 111.871094 C 11.164062 109.324219 12.292969 106.917969 14.410156 104.65625 C 16.390625 102.671875 18.71875 101.539062 21.40625 101.257812 L 57.855469 66.230469 L 30.09375 38.636719 L 14.625 53.917969 L 13.351562 54.132812 L 0 40.546875 L 0.214844 39.273438 L 29.667969 9.765625 C 35.460938 8.632812 40.546875 7.289062 44.925781 5.730469 L 60.609375 0 L 64.425781 4.035156 L 44.292969 24.414062 L 71.839844 52.222656 "/>
</g>
</svg>

<svg xmlns="http://www.w3.org/2000/svg" width="128pt" height="121pt" viewBox="0 0 128 121"><path d="M24.16 108.262c-1.555-1.84-3.601-1.625-6.144.636q-3.18 3.398-.637 5.946 2.753 2.546 5.933-.637 3.392-3.398.848-5.945m47.68-56.04L85.19 38.849c-2.261-6.227-2.964-11.395-2.117-15.496q1.694-7.008 5.719-10.829 4.241-4.458 10.809-5.941 6.357-1.276 12.925 1.484L101.723 18.68l3.175 9.976 9.54 2.973 10.804-10.824c1.84 4.101 2.332 8.277 1.485 12.523q-1.27 6.37-5.723 10.828-4.236 4.242-11.23 5.942c-4.52.851-9.606.14-15.258-2.121l-13.352 13.37 42.383 42.458-14.195 14.222L66.969 75.57l-36.664 35.453q-.211 3.609-2.965 6.579c-2.121 1.984-4.524 3.043-7.207 3.187q-4.027.211-6.57-2.336-2.543-2.336-2.543-6.582.215-3.821 3.39-7.215c1.98-1.984 4.309-3.117 6.996-3.398l36.45-35.028-27.762-27.593-15.469 15.281-1.273.215L0 40.547l.215-1.274L29.668 9.766q8.69-1.698 15.258-4.036L60.609 0l3.817 4.035-20.133 20.38z"/></svg>
